X:244
T:Polska fr{\aa}n M\"ork\"o
T:Polska efter Anders Gustaf Andersson
R:sl\"angpolska
O:S\"ormland, M\"ork\"o
Z:id:hn-sp-244
M:3/4
L:1/16
K:A
a3a a2b2 c'2a2 | b2b2 c'bab c'2a2 | a3a a2b2 c'2a2 | b2b2 c'bab c'2a2 |
e3f e2d2 c2B2 | A2Bc d2Bd c3B | A2ce a2ed c2BA | E2GB A4 A4 :|
K:Am
|: e3e e2f2 e2c2 | d3f e2d2 c2B2 | A2c2 B2A2 ^G2E2 | ^G2A2 B2e2 E4 |
e3e e2f2 e2c2 | d3f e2d2 c2B2 | A2c2 B2A2 ^G2E2 | ^G2BG A4 A4 :|

